!!key: tele-40-06-Fan-All-03-Flute
!!!COM: Telemann, Georg Philipp
!!!CDT: 1681/03/14-1767/06/25
!!!CBL: Magdeburg
!!!CDL: Hamburg
!!!CNT: German
!!!TWV: 40:6
!!!TWV-genre: 40
!!!TWV-work: 6
!!!OPR: 12 Fantasias for transverse flute without bass
!!!OTL: Fantasia 5
!!!OMD: Allegro
!!!OMV: 3
!!!ODT: ca. 1732–1733
!!!AST: Late Baroque
!!!AGN: Fantasia
!!!AMT: Compound duple
!!!AIN: Transverse flute
**kern
*ICww
*Iflt
*clefG2
*k[]
*C:
*M6/8
8gg
=1
8.ggL
16aa
8ggJ
4ee
8gg
=2
8.ggL
16aa
8ggJ
4ee
8gg
=3
(8ee
4cc)
(8ff
4dd)
=4
(8ee
[4cc)
4cc]
16bL
16ccJ
=5
8.ddL
16ee
8ddJ
4gg
8b
=6
8.ccL
16dd
8ccJ
4aa
8cc
!!LO:LB:g=original
=7
(8b
4g)
(8a
4f#X)
=8
4.g`
4.ee`
=9
8.ddL
16cc
8bJ
8.ccL
16b
8aJ
=10
4.g`
4.ee`
=11
8.ddL
16cc
8bJ
8.ccL
16b
8aJ
=12
8.ggL
16ff#X
8ggJ
4aa
8cc
=13
(8b
4g)
(8a
4f#X)
=14
[4.g
4g]
!!LO:LB:g=original
=:||:
8dd
=15
8.ddL
16ee
8ddJ
4b
8dd
=16
8.ddL
16ee
8ddJ
4b
8ee
=17
(8cc
4a)
(8dd
4b)
=18
(8cc
[4a)
4a]
16bL
16cc#XJ
=19
8.ddL
16ee
8ddJ
!TODO: trill +
8.ddL
16cc#X
8ddJ
=20
8.eeL
16ff
8eeJ
!TODO: trill +
8.eeL
16dd
8eeJ
!!LO:LB:g=original
=21
8.ffL
16gg
8aaJ
8.aL
16dd
8cc#XJ
=22
4.dd
4d
16ddL
16eeJ
=23
(8ff
4dd)
(8aa
4ff)
=24
(8gg
[4ee)
4ee]
16ddL
16eeJ
=25
(8ff
4dd)
(8ee
4cc)
=26
(8dd
[4g)
4g]
16eeL
16ffJ
=27
8.ggL
16aa
8ggJ
4ccc
8ee
=28
8.ffL
16gg
8ffJ
4ddd
8ff
!!LO:LB:g=original
=29
(8ee
4cc)
(8dd
4b)
=30
4.cc`
4.aa`
=31
8.ggL
16ff
8eeJ
8.ffL
16ee
8ddJ
=32
4.cc`
4.aa`
=33
8.ggL
16ff
8eeJ
8.ffL
16ee
8ddJ
=34
8.cccL
16bb
8cccJ
4ddd
8ff
=35
(8ee
4cc)
(8dd
4b)
=36
[4.cc
4cc]
==:|
*-
!!!RTL1: G. PH. Telemann: Twelve Fantasias for Flute without Bass TWV 40:2-13
!!!RPN1: D'Arcangelo, Rita
!!!RMM1: Da Vinci Classics
!!!RC#1: DV-C00440
!!!RRD1: 2022
!!!RLC1: Andreaskirche, Berlin, Germany
!!!RDT1: 16 September 2020, 17 September 2020
!!!RT#1: 5
!!!RTL2: The Telemann Files: 12 Fantasies for Solo Flute
!!!RPN2: Choi, Jasmine
!!!RMM2: Austrian Gramophone
!!!RC#2: AG0001
!!!RRD2: February 2015
!!!RLC2: LeFrak Hall, Queens, USA
!!!RDT2: 9 June 2014, 10 June 2014
!!!RT#2: 5
!!!RTL3: Georg Philipp Telemann: Twelve Fantasies for Flute
!!!RPN3: Robertello, Thomas
!!!RMM3: Delos
!!!RC#3: DE3396
!!!RRD3: 1 June 2009
!!!RLC3: Clear Creek Recording, Keene, California
!!!RDT3: Unknown
!!!RT#3: 5
